X:137
T:Queen's House, The
M:2/4
L:1/8
B:Thompson's Compleat Collection of 200 Favourite Country Dances, vol. 2 (London, 1765)
Z:Transcribed and edited by Flynn Titford-Mock, 2007
Z:abc's:AK/Fiddler's Companion
K:G
DGGF | EDEF | (G/F/G/A/) (B/A/B/c/) | A2A2 | DGGF | EDEF | (G/F/G/A/) (B/c/A/B/) | G2G2 :|
|: (g/f/g/a) (g/f/g/a/) | gGFE | Dgfg | (a/g/f/e/) d2 | (g/f/g/a/) (g/f/g/a/) | gGFE | Dgdf | g2g2 :|

